!!!COM: Anon.
!!!OTL: Ideglauda saiu chorando
!!!OTL: Romanceiro Folclorico do Brasil
!!!CNT: Brasil
!!!OCY: Brasil
!!!ODT: <1971///
!!!PSR: Irmaos Vitale
!!!PSP: Sao Paulo, Brasil
!!!PDT: 1950///
!!!PPE: Rossini Tavares de Lima
!!!PPG: page 23
!! Romance: Silvaninha
!! Place: Bairro da Mooca, Capital, Sao Paulo, Brasil
**kern
*clefG2
*k[b-e-a-]
*M3/4
*MM100
8g
8g
=
4c
8c
8d
8e-
8f
=
4g
4g
4b-
=
8a-
8a-
8f
8g
8a-
8cc
=
4g
4g
4g
=
4f
8d
8e-
8f
8g
=
4e-
4e-
8e-
8e-
=
4d
4g
8g
8Bn
=
4c
4c
==
*-
